Newaita-dark/apps/24/com.github.ronnydo.wammer.svg

<svg height="24" viewBox="0 0 24 24" width="24" xmlns="http://www.w3.org/2000/svg" xmlns:xlink="http://www.w3.org/1999/xlink"><linearGradient id="a"><stop offset="0" stop-opacity=".313726"/><stop offset=".222222" stop-opacity=".27451"/><stop offset="1" stop-opacity="0"/></linearGradient><radialGradient id="b" cx="450.908936" cy="189.579361" gradientTransform="matrix(.00000013 -.0585994 -.105479 -.00000008 31.65587 47.630346)" gradientUnits="userSpaceOnUse" r="21.166656" xlink:href="#a"/><radialGradient id="c" cx="450.908936" cy="189.579361" gradientTransform="matrix(-.00000013 .0585994 .105479 .00000008 -7.841093 -5.711762)" gradientUnits="userSpaceOnUse" r="21.166656" xlink:href="#a"/><radialGradient id="d" cx="450.908936" cy="189.579361" gradientTransform="matrix(-.00000013 -.0585994 .105479 -.00000008 -7.841093 47.630346)" gradientUnits="userSpaceOnUse" r="21.166656" xlink:href="#a"/><radialGradient id="e" cx="450.908936" cy="189.579361" gradientTransform="matrix(.00000013 .0585994 -.105479 .00000008 31.655869 -5.711763)" gradientUnits="userSpaceOnUse" r="21.166656" xlink:href="#a"/><linearGradient id="f" gradientUnits="userSpaceOnUse" x1="11.907393" x2="11.907393" y1="21.02545025" y2="3.16436075"><stop offset="0" stop-color="#009688"/><stop offset="1" stop-color="#26a69a"/></linearGradient><linearGradient id="g" gradientUnits="userSpaceOnUse" x1="11.907393" x2="11.907393" y1="21.02545025" y2="3.16436075"><stop offset="0" stop-color="#78909c"/><stop offset="1" stop-color="#90a4ae"/></linearGradient><linearGradient id="h" gradientUnits="userSpaceOnUse" x1="11.907393" x2="11.907393" y1="21.02545025" y2="2.17207774998"><stop offset="0" stop-color="#ffa726"/><stop offset="1" stop-color="#ffb74d"/></linearGradient><linearGradient id="i" gradientUnits="userSpaceOnUse" x1="11.907393" x2="11.907393" y1="21.02545025" y2="3.16436075"><stop offset="0" stop-color="#f44336"/><stop offset="1" stop-color="#ef5350"/></linearGradient><path d="m11.90625 20.960938h1.984375v-.992188h-1.984375zm0 0" fill="url(#b)"/><path d="m11.90625 20.960938h-1.984375v.992187h1.984375zm0 0" fill="url(#c)"/><path d="m11.90625 20.960938h-1.984375v-.992188h1.984375zm0 0" fill="url(#d)"/><path d="m11.90625 20.960938h1.984375v.992187h-1.984375zm0 0" fill="url(#e)"/><path d="m11.90625 15.195312c-1.453125 0-2.757812.621094-3.664062 1.613282l2.640624 3.84375c.527344.496094 1.519532.496094 2.046876 0l2.644531-3.84375c-.90625-.992188-2.210938-1.613282-3.667969-1.613282zm0 0" fill="url(#f)"/><path d="m11.90625 3.289062c-3.960938 0-7.597656 1.351563-10.46875 3.621094l1.691406 2.464844c2.390625-1.945312 5.441406-3.109375 8.777344-3.109375s6.390625 1.164063 8.777344 3.109375l1.695312-2.464844c-2.875-2.269531-6.507812-3.621094-10.472656-3.621094zm0 0" fill="url(#g)"/><path d="m11.90625 9.242188c-2.707031 0-5.179688.976562-7.082031 2.597656l1.699219 2.472656c1.414062-1.300781 3.304687-2.09375 5.382812-2.09375 2.082031 0 3.972656.792969 5.382812 2.09375l1.703126-2.472656c-1.90625-1.621094-4.378907-2.597656-7.085938-2.597656zm0 0" fill="url(#f)"/><path d="m11.90625 9.242188c-2.707031 0-5.179688.976562-7.082031 2.597656l1.699219 2.472656c1.414062-1.300781 3.304687-2.09375 5.382812-2.09375 2.082031 0 3.972656.792969 5.382812 2.09375l1.703126-2.472656c-1.90625-1.621094-4.378907-2.597656-7.085938-2.597656zm0 0" fill="url(#g)"/><path d="m11.90625 15.195312c-1.453125 0-2.757812.621094-3.664062 1.613282l2.640624 3.84375c.527344.496094 1.519532.496094 2.046876 0l2.644531-3.84375c-.90625-.992188-2.210938-1.613282-3.667969-1.613282zm0 0" fill="url(#g)"/><path d="m11.90625 6.078125c-3.335938 0-6.386719 1.164063-8.777344 3.109375l-1.609375-2.339844c-.027343.019532-.054687.042969-.082031.0625l1.691406 2.464844c2.390625-1.945312 5.441406-3.109375 8.777344-3.109375s6.390625 1.164063 8.777344 3.109375l1.695312-2.464844c-.027344-.019531-.054687-.042968-.085937-.0625l-1.609375 2.339844c-2.386719-1.945312-5.441406-3.109375-8.777344-3.109375zm-7 5.691406c-.027344.023438-.054688.046875-.082031.070313l1.699219 2.472656c1.414062-1.300781 3.304687-2.09375 5.382812-2.09375 2.082031 0 3.972656.792969 5.382812 2.09375l1.703126-2.472656c-.027344-.023438-.054688-.046875-.082032-.070313l-1.621094 2.355469c-1.410156-1.300781-3.300781-2.09375-5.382812-2.09375-2.078125 0-3.96875.792969-5.382812 2.09375zm3.40625 4.960938c-.023438.023437-.046875.050781-.070312.078125l2.640624 3.84375c.527344.496094 1.519532.496094 2.046876 0l2.644531-3.84375c-.023438-.027344-.050781-.054688-.074219-.078125l-2.570312 3.738281c-.527344.496094-1.519532.496094-2.046876 0zm0 0" fill-opacity=".235294"/><path d="m11.90625 3.289062c-3.960938 0-7.597656 1.351563-10.46875 3.621094l.109375.164063c2.855469-2.21875 6.449219-3.539063 10.359375-3.539063 3.914062 0 7.503906 1.320313 10.359375 3.539063l.113281-.164063c-2.875-2.269531-6.507812-3.621094-10.472656-3.621094zm0 5.953126c-2.707031 0-5.179688.976562-7.082031 2.597656l.109375.15625c1.886718-1.566406 4.316406-2.507813 6.972656-2.507813s5.085938.941407 6.976562 2.507813l.109376-.15625c-1.90625-1.621094-4.378907-2.597656-7.085938-2.597656zm0 5.953124c-1.453125 0-2.757812.621094-3.664062 1.613282l.097656.144531c.898437-.933594 2.164062-1.507813 3.566406-1.507813 1.40625 0 2.667969.574219 3.570312 1.507813l.097657-.144531c-.90625-.992188-2.210938-1.613282-3.667969-1.613282zm0 0" fill="#fff" fill-opacity=".392157"/><path d="m11.90625 3.21875c-3.976562 0-7.628906 1.359375-10.511719 3.636719l-.054687.042969 1.773437 2.578124.0625-.046874c2.375-1.9375 5.414063-3.09375 8.730469-3.09375 3.320312 0 6.355469 1.15625 8.734375 3.09375l.058594.046874 1.773437-2.578124-.050781-.042969c-2.886719-2.277344-6.535156-3.636719-10.515625-3.636719zm0 .140625c3.925781 0 7.523438 1.332031 10.375 3.566406l-1.613281 2.347657c-2.390625-1.925782-5.4375-3.078126-8.761719-3.078126s-6.367188 1.152344-8.761719 3.078126l-1.613281-2.347657c2.855469-2.234375 6.453125-3.566406 10.375-3.566406zm0 5.8125c-2.722656 0-5.210938.984375-7.128906 2.613281l-.046875.042969 1.78125 2.589844.0625-.054688c1.398437-1.289062 3.269531-2.074219 5.332031-2.074219s3.9375.785157 5.335938 2.074219l.058593.054688 1.785157-2.589844-.050782-.042969c-1.914062-1.628906-4.402344-2.613281-7.128906-2.613281zm0 .140625c2.667969 0 5.105469.953125 6.988281 2.539062l-1.617187 2.355469c-1.417969-1.28125-3.300782-2.058593-5.371094-2.058593s-3.949219.777343-5.367188 2.058593l-1.621093-2.355469c1.886719-1.585937 4.320312-2.539062 6.988281-2.539062zm0 5.8125c-1.472656 0-2.796875.628906-3.71875 1.636719l-.035156.039062 2.679687 3.898438.003907.003906c.28125.265625.675781.394531 1.070312.394531s.792969-.128906 1.074219-.394531l.003906-.003906 2.679687-3.898438-.039062-.039062c-.917969-1.007813-2.242188-1.636719-3.71875-1.636719zm0 .140625c1.417969 0 2.6875.597656 3.578125 1.550781l-2.605469 3.789063c-.25.230469-.609375.351562-.972656.351562-.359375 0-.722656-.121093-.96875-.351562l-2.605469-3.789063c.890625-.953125 2.160157-1.550781 3.574219-1.550781zm0 0" fill="#212121"/><path d="m11.90625 16.390625-.75-3.640625-3.109375 2.042969 2.046875-3.109375-3.644531-.75 3.644531-.753906-2.046875-3.105469 3.109375 2.042969.75-3.640626.753906 3.640626 3.105469-2.042969-2.042969 3.105469 3.640625.753906-3.640625.75 2.042969 3.109375-3.105469-2.042969zm0 0" fill="url(#h)"/><path d="m8.046875 7.484375 1.808594 2.746094.238281-.050781-1.570312-2.382813zm7.71875 0-.472656.3125-1.570313 2.382813.238282.050781zm-8.324219 3.652344-.992187.207031 3.40625.703125.238281-.363281zm8.929688 0-2.648438.546875.238282.363281 3.402343-.703125zm-5.214844 1.613281-2.632812 1.730469-.476563.722656 3.109375-2.042969.75 3.640625.753906-3.640625 3.105469 2.042969-.472656-.722656-2.632813-1.730469-.753906 3.640625zm0 0" fill-opacity=".235294"/><path d="m253.975747 134.633278-15.998473-77.65925-66.326999 43.579172 43.662497-66.327-77.742576-15.998472 77.742576-16.081798-43.662497-66.243674 66.326999 43.579172 15.998473-77.659251 16.081797 77.659251 66.243674-43.579172-43.579172 66.243674 77.659251 16.081798-77.659251 15.998472 43.579172 66.327-66.243674-43.579172zm0 0" fill="none" stroke="#212121" stroke-linecap="round" stroke-linejoin="round" stroke-width="3" transform="matrix(.0468795 0 0 .0468795 0 10.079087)"/><path d="m11.882812 13.242188-.355468-1.707032-1.453125.957032.957031-1.457032-1.707031-.351562 1.707031-.351563-.957031-1.457031 1.453125.957031.355468-1.707031.351563 1.707031 1.457031-.957031-.960937 1.457031 1.707031.351563-1.707031.351562.960937 1.457032-1.457031-.957032zm0 0" fill="url(#i)"/></svg>

<?xml version="1.0" encoding="UTF-8"?>
<svg xmlns="http://www.w3.org/2000/svg" xmlns:xlink="http://www.w3.org/1999/xlink" width="24px" height="24px" viewBox="0 0 24 24" version="1.1">
<defs>
<radialGradient id="radial0" gradientUnits="userSpaceOnUse" cx="450.908936" cy="189.579361" fx="450.908936" fy="189.579361" r="21.166656" gradientTransform="matrix(0.000000130628,-0.0585994,-0.105479,-0.0000000761539,31.65587,47.630346)">
<stop offset="0" style="stop-color:rgb(0%,0%,0%);stop-opacity:0.313726;"/>
<stop offset="0.222222" style="stop-color:rgb(0%,0%,0%);stop-opacity:0.27451;"/>
<stop offset="1" style="stop-color:rgb(0%,0%,0%);stop-opacity:0;"/>
</radialGradient>
<radialGradient id="radial1" gradientUnits="userSpaceOnUse" cx="450.908936" cy="189.579361" fx="450.908936" fy="189.579361" r="21.166656" gradientTransform="matrix(-0.000000130628,0.0585994,0.105479,0.0000000761539,-7.841093,-5.711762)">
<stop offset="0" style="stop-color:rgb(0%,0%,0%);stop-opacity:0.313726;"/>
<stop offset="0.222222" style="stop-color:rgb(0%,0%,0%);stop-opacity:0.27451;"/>
<stop offset="1" style="stop-color:rgb(0%,0%,0%);stop-opacity:0;"/>
</radialGradient>
<radialGradient id="radial2" gradientUnits="userSpaceOnUse" cx="450.908936" cy="189.579361" fx="450.908936" fy="189.579361" r="21.166656" gradientTransform="matrix(-0.000000130628,-0.0585994,0.105479,-0.0000000761539,-7.841093,47.630346)">
<stop offset="0" style="stop-color:rgb(0%,0%,0%);stop-opacity:0.313726;"/>
<stop offset="0.222222" style="stop-color:rgb(0%,0%,0%);stop-opacity:0.27451;"/>
<stop offset="1" style="stop-color:rgb(0%,0%,0%);stop-opacity:0;"/>
</radialGradient>
<radialGradient id="radial3" gradientUnits="userSpaceOnUse" cx="450.908936" cy="189.579361" fx="450.908936" fy="189.579361" r="21.166656" gradientTransform="matrix(0.000000130628,0.0585994,-0.105479,0.0000000761539,31.655869,-5.711763)">
<stop offset="0" style="stop-color:rgb(0%,0%,0%);stop-opacity:0.313726;"/>
<stop offset="0.222222" style="stop-color:rgb(0%,0%,0%);stop-opacity:0.27451;"/>
<stop offset="1" style="stop-color:rgb(0%,0%,0%);stop-opacity:0;"/>
</radialGradient>
<linearGradient id="linear0" gradientUnits="userSpaceOnUse" x1="254" y1="233.5" x2="254" y2="-147.5" gradientTransform="matrix(0.0468795,0,0,0.0468795,0,10.079087)">
<stop offset="0" style="stop-color:rgb(0%,58.823532%,53.333336%);stop-opacity:1;"/>
<stop offset="1" style="stop-color:rgb(14.901961%,65.098041%,60.392159%);stop-opacity:1;"/>
</linearGradient>
<linearGradient id="linear1" gradientUnits="userSpaceOnUse" x1="254" y1="233.5" x2="254" y2="-147.5" gradientTransform="matrix(0.0468795,0,0,0.0468795,0,10.079087)">
<stop offset="0" style="stop-color:rgb(47.058824%,56.470591%,61.176473%);stop-opacity:1;"/>
<stop offset="1" style="stop-color:rgb(56.470591%,64.313728%,68.235296%);stop-opacity:1;"/>
</linearGradient>
<linearGradient id="linear2" gradientUnits="userSpaceOnUse" x1="254" y1="233.5" x2="254" y2="-147.5" gradientTransform="matrix(0.0468795,0,0,0.0468795,0,10.079087)">
<stop offset="0" style="stop-color:rgb(0%,58.823532%,53.333336%);stop-opacity:1;"/>
<stop offset="1" style="stop-color:rgb(14.901961%,65.098041%,60.392159%);stop-opacity:1;"/>
</linearGradient>
<linearGradient id="linear3" gradientUnits="userSpaceOnUse" x1="254" y1="233.5" x2="254" y2="-147.5" gradientTransform="matrix(0.0468795,0,0,0.0468795,0,10.079087)">
<stop offset="0" style="stop-color:rgb(47.058824%,56.470591%,61.176473%);stop-opacity:1;"/>
<stop offset="1" style="stop-color:rgb(56.470591%,64.313728%,68.235296%);stop-opacity:1;"/>
</linearGradient>
<linearGradient id="linear4" gradientUnits="userSpaceOnUse" x1="254" y1="233.5" x2="254" y2="-147.5" gradientTransform="matrix(0.0468795,0,0,0.0468795,0,10.079087)">
<stop offset="0" style="stop-color:rgb(47.058824%,56.470591%,61.176473%);stop-opacity:1;"/>
<stop offset="1" style="stop-color:rgb(56.470591%,64.313728%,68.235296%);stop-opacity:1;"/>
</linearGradient>
<linearGradient id="linear5" gradientUnits="userSpaceOnUse" x1="254" y1="233.5" x2="254" y2="-168.666672" gradientTransform="matrix(0.0468795,0,0,0.0468795,0,10.079087)">
<stop offset="0" style="stop-color:rgb(100%,65.490198%,14.901961%);stop-opacity:1;"/>
<stop offset="1" style="stop-color:rgb(100%,71.764708%,30.19608%);stop-opacity:1;"/>
</linearGradient>
<linearGradient id="linear6" gradientUnits="userSpaceOnUse" x1="254" y1="233.5" x2="254" y2="-147.5" gradientTransform="matrix(0.0468795,0,0,0.0468795,0,10.079087)">
<stop offset="0" style="stop-color:rgb(95.686275%,26.274511%,21.176471%);stop-opacity:1;"/>
<stop offset="1" style="stop-color:rgb(93.725491%,32.549021%,31.37255%);stop-opacity:1;"/>
</linearGradient>
</defs>
<g id="surface1">
<path style=" stroke:none;fill-rule:nonzero;fill:url(#radial0);" d="M 11.90625 20.960938 L 13.890625 20.960938 L 13.890625 19.96875 L 11.90625 19.96875 Z M 11.90625 20.960938 "/>
<path style=" stroke:none;fill-rule:nonzero;fill:url(#radial1);" d="M 11.90625 20.960938 L 9.921875 20.960938 L 9.921875 21.953125 L 11.90625 21.953125 Z M 11.90625 20.960938 "/>
<path style=" stroke:none;fill-rule:nonzero;fill:url(#radial2);" d="M 11.90625 20.960938 L 9.921875 20.960938 L 9.921875 19.96875 L 11.90625 19.96875 Z M 11.90625 20.960938 "/>
<path style=" stroke:none;fill-rule:nonzero;fill:url(#radial3);" d="M 11.90625 20.960938 L 13.890625 20.960938 L 13.890625 21.953125 L 11.90625 21.953125 Z M 11.90625 20.960938 "/>
<path style=" stroke:none;fill-rule:nonzero;fill:url(#linear0);" d="M 11.90625 15.195312 C 10.453125 15.195312 9.148438 15.816406 8.242188 16.808594 L 10.882812 20.652344 C 11.410156 21.148438 12.402344 21.148438 12.929688 20.652344 L 15.574219 16.808594 C 14.667969 15.816406 13.363281 15.195312 11.90625 15.195312 Z M 11.90625 15.195312 "/>
<path style=" stroke:none;fill-rule:nonzero;fill:url(#linear1);" d="M 11.90625 3.289062 C 7.945312 3.289062 4.308594 4.640625 1.4375 6.910156 L 3.128906 9.375 C 5.519531 7.429688 8.570312 6.265625 11.90625 6.265625 C 15.242188 6.265625 18.296875 7.429688 20.683594 9.375 L 22.378906 6.910156 C 19.503906 4.640625 15.871094 3.289062 11.90625 3.289062 Z M 11.90625 3.289062 "/>
<path style=" stroke:none;fill-rule:nonzero;fill:url(#linear2);" d="M 11.90625 9.242188 C 9.199219 9.242188 6.726562 10.21875 4.824219 11.839844 L 6.523438 14.3125 C 7.9375 13.011719 9.828125 12.21875 11.90625 12.21875 C 13.988281 12.21875 15.878906 13.011719 17.289062 14.3125 L 18.992188 11.839844 C 17.085938 10.21875 14.613281 9.242188 11.90625 9.242188 Z M 11.90625 9.242188 "/>
<path style=" stroke:none;fill-rule:nonzero;fill:url(#linear3);" d="M 11.90625 9.242188 C 9.199219 9.242188 6.726562 10.21875 4.824219 11.839844 L 6.523438 14.3125 C 7.9375 13.011719 9.828125 12.21875 11.90625 12.21875 C 13.988281 12.21875 15.878906 13.011719 17.289062 14.3125 L 18.992188 11.839844 C 17.085938 10.21875 14.613281 9.242188 11.90625 9.242188 Z M 11.90625 9.242188 "/>
<path style=" stroke:none;fill-rule:nonzero;fill:url(#linear4);" d="M 11.90625 15.195312 C 10.453125 15.195312 9.148438 15.816406 8.242188 16.808594 L 10.882812 20.652344 C 11.410156 21.148438 12.402344 21.148438 12.929688 20.652344 L 15.574219 16.808594 C 14.667969 15.816406 13.363281 15.195312 11.90625 15.195312 Z M 11.90625 15.195312 "/>
<path style=" stroke:none;fill-rule:nonzero;fill:rgb(0%,0%,0%);fill-opacity:0.235294;" d="M 11.90625 6.078125 C 8.570312 6.078125 5.519531 7.242188 3.128906 9.1875 L 1.519531 6.847656 C 1.492188 6.867188 1.464844 6.890625 1.4375 6.910156 L 3.128906 9.375 C 5.519531 7.429688 8.570312 6.265625 11.90625 6.265625 C 15.242188 6.265625 18.296875 7.429688 20.683594 9.375 L 22.378906 6.910156 C 22.351562 6.890625 22.324219 6.867188 22.292969 6.847656 L 20.683594 9.1875 C 18.296875 7.242188 15.242188 6.078125 11.90625 6.078125 Z M 4.90625 11.769531 C 4.878906 11.792969 4.851562 11.816406 4.824219 11.839844 L 6.523438 14.3125 C 7.9375 13.011719 9.828125 12.21875 11.90625 12.21875 C 13.988281 12.21875 15.878906 13.011719 17.289062 14.3125 L 18.992188 11.839844 C 18.964844 11.816406 18.9375 11.792969 18.910156 11.769531 L 17.289062 14.125 C 15.878906 12.824219 13.988281 12.03125 11.90625 12.03125 C 9.828125 12.03125 7.9375 12.824219 6.523438 14.125 Z M 8.3125 16.730469 C 8.289062 16.753906 8.265625 16.78125 8.242188 16.808594 L 10.882812 20.652344 C 11.410156 21.148438 12.402344 21.148438 12.929688 20.652344 L 15.574219 16.808594 C 15.550781 16.78125 15.523438 16.753906 15.5 16.730469 L 12.929688 20.46875 C 12.402344 20.964844 11.410156 20.964844 10.882812 20.46875 Z M 8.3125 16.730469 "/>
<path style=" stroke:none;fill-rule:nonzero;fill:rgb(100%,100%,100%);fill-opacity:0.392157;" d="M 11.90625 3.289062 C 7.945312 3.289062 4.308594 4.640625 1.4375 6.910156 L 1.546875 7.074219 C 4.402344 4.855469 7.996094 3.535156 11.90625 3.535156 C 15.820312 3.535156 19.410156 4.855469 22.265625 7.074219 L 22.378906 6.910156 C 19.503906 4.640625 15.871094 3.289062 11.90625 3.289062 Z M 11.90625 9.242188 C 9.199219 9.242188 6.726562 10.21875 4.824219 11.839844 L 4.933594 11.996094 C 6.820312 10.429688 9.25 9.488281 11.90625 9.488281 C 14.5625 9.488281 16.992188 10.429688 18.882812 11.996094 L 18.992188 11.839844 C 17.085938 10.21875 14.613281 9.242188 11.90625 9.242188 Z M 11.90625 15.195312 C 10.453125 15.195312 9.148438 15.816406 8.242188 16.808594 L 8.339844 16.953125 C 9.238281 16.019531 10.503906 15.445312 11.90625 15.445312 C 13.3125 15.445312 14.574219 16.019531 15.476562 16.953125 L 15.574219 16.808594 C 14.667969 15.816406 13.363281 15.195312 11.90625 15.195312 Z M 11.90625 15.195312 "/>
<path style=" stroke:none;fill-rule:nonzero;fill:rgb(12.941177%,12.941177%,12.941177%);fill-opacity:1;" d="M 11.90625 3.21875 C 7.929688 3.21875 4.277344 4.578125 1.394531 6.855469 L 1.339844 6.898438 L 3.113281 9.476562 L 3.175781 9.429688 C 5.550781 7.492188 8.589844 6.335938 11.90625 6.335938 C 15.226562 6.335938 18.261719 7.492188 20.640625 9.429688 L 20.699219 9.476562 L 22.472656 6.898438 L 22.421875 6.855469 C 19.535156 4.578125 15.886719 3.21875 11.90625 3.21875 Z M 11.90625 3.359375 C 15.832031 3.359375 19.429688 4.691406 22.28125 6.925781 L 20.667969 9.273438 C 18.277344 7.347656 15.230469 6.195312 11.90625 6.195312 C 8.582031 6.195312 5.539062 7.347656 3.144531 9.273438 L 1.53125 6.925781 C 4.386719 4.691406 7.984375 3.359375 11.90625 3.359375 Z M 11.90625 9.171875 C 9.183594 9.171875 6.695312 10.15625 4.777344 11.785156 L 4.730469 11.828125 L 6.511719 14.417969 L 6.574219 14.363281 C 7.972656 13.074219 9.84375 12.289062 11.90625 12.289062 C 13.96875 12.289062 15.84375 13.074219 17.242188 14.363281 L 17.300781 14.417969 L 19.085938 11.828125 L 19.035156 11.785156 C 17.121094 10.15625 14.632812 9.171875 11.90625 9.171875 Z M 11.90625 9.3125 C 14.574219 9.3125 17.011719 10.265625 18.894531 11.851562 L 17.277344 14.207031 C 15.859375 12.925781 13.976562 12.148438 11.90625 12.148438 C 9.835938 12.148438 7.957031 12.925781 6.539062 14.207031 L 4.917969 11.851562 C 6.804688 10.265625 9.238281 9.3125 11.90625 9.3125 Z M 11.90625 15.125 C 10.433594 15.125 9.109375 15.753906 8.1875 16.761719 L 8.152344 16.800781 L 10.832031 20.699219 L 10.835938 20.703125 C 11.117188 20.96875 11.511719 21.097656 11.90625 21.097656 C 12.300781 21.097656 12.699219 20.96875 12.980469 20.703125 L 12.984375 20.699219 L 15.664062 16.800781 L 15.625 16.761719 C 14.707031 15.753906 13.382812 15.125 11.90625 15.125 Z M 11.90625 15.265625 C 13.324219 15.265625 14.59375 15.863281 15.484375 16.816406 L 12.878906 20.605469 C 12.628906 20.835938 12.269531 20.957031 11.90625 20.957031 C 11.546875 20.957031 11.183594 20.835938 10.9375 20.605469 L 8.332031 16.816406 C 9.222656 15.863281 10.492188 15.265625 11.90625 15.265625 Z M 11.90625 15.265625 "/>
<path style=" stroke:none;fill-rule:nonzero;fill:url(#linear5);" d="M 11.90625 16.390625 L 11.15625 12.75 L 8.046875 14.792969 L 10.09375 11.683594 L 6.449219 10.933594 L 10.09375 10.179688 L 8.046875 7.074219 L 11.15625 9.117188 L 11.90625 5.476562 L 12.660156 9.117188 L 15.765625 7.074219 L 13.722656 10.179688 L 17.363281 10.933594 L 13.722656 11.683594 L 15.765625 14.792969 L 12.660156 12.75 Z M 11.90625 16.390625 "/>
<path style=" stroke:none;fill-rule:nonzero;fill:rgb(0%,0%,0%);fill-opacity:0.235294;" d="M 8.046875 7.484375 L 9.855469 10.230469 L 10.09375 10.179688 L 8.523438 7.796875 Z M 15.765625 7.484375 L 15.292969 7.796875 L 13.722656 10.179688 L 13.960938 10.230469 Z M 7.441406 11.136719 L 6.449219 11.34375 L 9.855469 12.046875 L 10.09375 11.683594 Z M 16.371094 11.136719 L 13.722656 11.683594 L 13.960938 12.046875 L 17.363281 11.34375 Z M 11.15625 12.75 L 8.523438 14.480469 L 8.046875 15.203125 L 11.15625 13.160156 L 11.90625 16.800781 L 12.660156 13.160156 L 15.765625 15.203125 L 15.292969 14.480469 L 12.660156 12.75 L 11.90625 16.390625 Z M 11.15625 12.75 "/>
<path style="fill:none;stroke-width:3;stroke-linecap:round;stroke-linejoin:round;stroke:rgb(12.941177%,12.941177%,12.941177%);stroke-opacity:1;stroke-miterlimit:4;" d="M 253.975747 134.633278 L 237.977274 56.974028 L 171.650275 100.5532 L 215.312772 34.2262 L 137.570196 18.227728 L 215.312772 2.14593 L 171.650275 -64.097744 L 237.977274 -20.518572 L 253.975747 -98.177823 L 270.057544 -20.518572 L 336.301218 -64.097744 L 292.722046 2.14593 L 370.381297 18.227728 L 292.722046 34.2262 L 336.301218 100.5532 L 270.057544 56.974028 Z M 253.975747 134.633278 " transform="matrix(0.0468795,0,0,0.0468795,0,10.079087)"/>
<path style=" stroke:none;fill-rule:nonzero;fill:url(#linear6);" d="M 11.882812 13.242188 L 11.527344 11.535156 L 10.074219 12.492188 L 11.03125 11.035156 L 9.324219 10.683594 L 11.03125 10.332031 L 10.074219 8.875 L 11.527344 9.832031 L 11.882812 8.125 L 12.234375 9.832031 L 13.691406 8.875 L 12.730469 10.332031 L 14.4375 10.683594 L 12.730469 11.035156 L 13.691406 12.492188 L 12.234375 11.535156 Z M 11.882812 13.242188 "/>
</g>
</svg>
